svgs/solid/passport.svg

<svg xmlns="http://www.w3.org/2000/svg" viewBox="0 0 448 512"><!-- Font Awesome Pro 6.0.0-alpha2 by @fontawesome - https://fontawesome.com License - https://fontawesome.com/license (Commercial License) --><path d="M129.625 208C134.875 239.25 155.25 265.125 182.875 278.375C175.25 259.375 170.25 235 168.75 208H129.625ZM129.625 176H168.75C170.25 149 175.25 124.625 182.875 105.625C155.25 118.875 134.875 144.75 129.625 176ZM224 286.75C231.75 279.25 244.75 252.25 247.375 208H200.5C203.25 252.25 216.25 279.25 224 286.75ZM265.125 105.625C272.75 124.625 277.75 149 279.25 176H318.375C313.125 144.75 292.75 118.875 265.125 105.625ZM384 0H64C28.654 0 0 28.654 0 64V448C0 483.346 28.654 512 64 512H384C419.199 512 448 483.199 448 448V64C448 28.801 419.199 0 384 0ZM336 416H112C103.25 416 96 408.75 96 400S103.25 384 112 384H336C344.75 384 352 391.25 352 400S344.75 416 336 416ZM224 320C153.25 320 96 262.75 96 192S153.25 64 224 64S352 121.25 352 192S294.75 320 224 320ZM265.125 278.375C292.75 265.125 313.125 239.25 318.375 208H279.25C277.75 235 272.75 259.375 265.125 278.375ZM200.625 176H247.5C244.75 131.75 231.75 104.75 224 97.25C216.25 104.75 203.25 131.75 200.625 176Z"/></svg>

<svg xmlns="http://www.w3.org/2000/svg" viewBox="0 0 448 512"><!--! Font Awesome Pro 6.0.0-alpha3 by @fontawesome - https://fontawesome.com License - https://fontawesome.com/license (Commercial License) --><path d="M129.6 208c5.25 31.25 25.62 57.13 53.25 70.38C175.3 259.4 170.3 235 168.8 208H129.6zM129.6 176h39.13c1.5-27 6.5-51.38 14.12-70.38C155.3 118.9 134.9 144.8 129.6 176zM224 286.8C231.8 279.3 244.8 252.3 247.4 208H200.5C203.3 252.3 216.3 279.3 224 286.8zM265.1 105.6C272.8 124.6 277.8 149 279.3 176h39.13C313.1 144.8 292.8 118.9 265.1 105.6zM384 0H64C28.65 0 0 28.65 0 64v384c0 35.35 28.65 64 64 64h320c35.2 0 64-28.8 64-64V64C448 28.8 419.2 0 384 0zM336 416h-224C103.3 416 96 408.8 96 400S103.3 384 112 384h224c8.75 0 16 7.25 16 16S344.8 416 336 416zM224 320c-70.75 0-128-57.25-128-128s57.25-128 128-128s128 57.25 128 128S294.8 320 224 320zM265.1 278.4c27.62-13.25 48-39.13 53.25-70.38h-39.13C277.8 235 272.8 259.4 265.1 278.4zM200.6 176h46.88C244.7 131.8 231.8 104.8 224 97.25C216.3 104.8 203.2 131.8 200.6 176z"/></svg>
